X: 203
M: 3/8
L: 1/8
K: C
c B A | A G G | G2 A/ G/ | G F F | F2 (G/ F/) |
c2 G | G f> G | G e> e | (e/d/) (d/c/) (B/d/) | c2 z |]


